assets/images/japan/icon-community.svg

<svg width="100" height="100" viewBox="0 0 100 100" fill="none" xmlns="http://www.w3.org/2000/svg">
<path d="M84.8732 100C81.3722 100 77.9517 98.7726 75.2455 96.5292C75.1348 96.4587 75.0644 96.3883 74.994 96.3078C71.6439 93.3903 69.7324 89.2253 69.7324 84.839C69.7324 81.328 70.9698 77.9074 73.2032 75.2012L73.3742 74.9899L68.9477 70.5131L68.7364 70.7042C68.1227 71.2575 67.4889 71.7807 66.8451 72.2636C66.7545 72.3441 66.674 72.4044 66.6036 72.4447C62.2978 75.5835 57.2475 77.3843 51.9759 77.666L51.6942 77.6861V82.2233L51.9457 82.2636C56.171 82.9577 59.2394 86.5795 59.2394 90.8652C59.2394 95.674 55.326 99.5875 50.5171 99.5875C45.7082 99.5875 41.7948 95.674 41.7948 90.8652C41.7948 86.5795 44.8632 82.9577 49.0885 82.2636L49.34 82.2233V77.6861L49.0583 77.666C43.7767 77.3843 38.7364 75.5835 34.4507 72.4648C34.1489 72.2938 33.8773 72.0624 33.6258 71.841L33.3541 71.6097C32.9919 71.3078 32.6298 71.006 32.2777 70.6942L32.0664 70.503L27.6499 74.9195L27.8209 75.1308C30.0543 77.837 31.2917 81.2575 31.2917 84.7686C31.2917 93.1187 24.501 99.9195 16.1509 99.9195C7.8008 99.9195 1 93.1388 1 84.7887C1 76.4386 7.79074 69.6378 16.1408 69.6378C19.6419 69.6378 23.0624 70.8652 25.7686 73.1086L25.9799 73.2797L30.3964 68.8632L30.2052 68.6519C26.0402 64.0141 23.5654 58.0583 23.2435 51.8612L23.2233 51.5795H18.6962L18.6559 51.831C17.9618 56.0664 14.34 59.1348 10.0543 59.1348C5.24547 59.1348 1.33199 55.2213 1.33199 50.4125C1.33199 45.6036 5.24547 41.6901 10.0543 41.6901C14.34 41.6901 17.9618 44.7585 18.6559 48.9839L18.6962 49.2354H23.2233L23.2435 48.9537C23.5755 42.7565 26.0402 36.8008 30.2052 32.173L30.3964 31.9618L25.8692 27.4346L25.6579 27.5755C23.1026 29.3662 20.1046 30.3119 16.996 30.3119C13.4748 30.3119 10.0443 29.0744 7.33803 26.8209C7.24748 26.7606 7.18712 26.7002 7.12676 26.6398C3.77666 23.7223 1.86519 19.5473 1.86519 15.1509C1.86519 6.8008 8.65593 0 17.006 0C25.3561 0 32.1469 6.8008 32.1469 15.1509C32.1469 19.0946 30.6278 22.837 27.8712 25.6841L27.66 25.8954L32.0463 30.2817L32.2575 30.0905C36.8853 25.9256 42.841 23.4507 49.0382 23.1288L49.3199 23.1086V18.5815L49.0684 18.5412C44.8431 17.8471 41.7746 14.2254 41.7746 9.92958C41.7746 5.12072 45.6881 1.20724 50.497 1.20724C55.3058 1.20724 59.2193 5.12072 59.2193 9.92958C59.2193 14.2153 56.1509 17.837 51.9255 18.5412L51.674 18.5815V23.1187L51.9557 23.1388C56.2917 23.3702 60.5473 24.6479 64.2596 26.8209C65.839 27.7465 67.338 28.8431 68.7264 30.0905L68.9376 30.2817L73.2938 25.8752L73.0926 25.664C70.3561 22.8169 68.8471 19.0946 68.8471 15.161C68.8471 6.81086 75.6378 0.0100604 83.9879 0.0100604C88.0221 0.0100604 91.8249 1.58954 94.6921 4.45674C97.5593 7.32394 99.1288 11.1268 99.1288 15.161C99.1288 19.5573 97.2173 23.7324 93.8773 26.6197C93.7968 26.7002 93.7364 26.7606 93.666 26.8008C90.9396 29.0644 87.509 30.3018 83.9879 30.3018C80.8591 30.3018 77.8511 29.3461 75.2857 27.5453L75.0744 27.3944L70.5875 31.9316L70.7787 32.1429C72.0161 33.5211 73.1127 35.0101 74.0382 36.5795C74.1288 36.7404 74.2193 36.8913 74.3099 37.0523L74.3702 37.163C74.6821 37.7264 74.4809 38.4406 73.9175 38.7626C73.7465 38.8632 73.5453 38.9135 73.3441 38.9135C72.9215 38.9135 72.5292 38.6821 72.3179 38.3099L72.2475 38.1891C72.167 38.0483 72.0966 37.9175 72.0161 37.7867C67.5392 30.161 59.2897 25.4326 50.4769 25.4326C36.7143 25.4326 25.5272 36.6298 25.5272 50.4024C25.5272 57.3239 28.3038 63.7726 33.3541 68.5412L33.7968 68.9638L33.8672 68.3602C34.4708 62.7867 39.169 61.5191 42.9517 60.5131L43.6861 60.3119C44.0282 60.2213 44.3099 59.8893 44.5915 59.2756L44.6922 59.0443L44.4809 58.9034C40.7887 56.3682 38.2032 52.1328 38.2032 48.5915V45.1911C38.2032 42.1328 38.9074 39.4467 40.2958 37.2133C40.507 36.8712 40.8793 36.66 41.2917 36.66C41.5131 36.66 41.7243 36.7203 41.9054 36.841C42.4487 37.1831 42.6197 37.9074 42.2777 38.4507C41.4125 39.839 40.8692 41.4588 40.6479 43.2797L40.5875 43.8229L41.0805 43.5915C41.7143 43.2897 42.1268 42.8672 42.5594 42.4245C43.2133 41.7606 44.0181 40.9356 45.4366 40.9356C45.7988 40.9356 46.1811 40.9859 46.5936 41.0966C47.1569 41.2374 47.6298 41.3682 48.0422 41.4789C49.33 41.8209 49.9537 41.992 50.4769 41.992C51 41.992 51.6338 41.8209 52.8712 41.4889C53.2938 41.3783 53.7867 41.2475 54.3602 41.0966C54.7626 40.996 55.1549 40.9356 55.5171 40.9356C56.9356 40.9356 57.7404 41.7606 58.3944 42.4245C58.827 42.8672 59.2394 43.2897 59.8732 43.5915L60.3662 43.8229L60.2958 43.2797C59.5111 36.8612 54.8028 33.9034 50.4769 33.8229C49.0483 33.8531 47.6398 34.175 46.3823 34.7686C46.2213 34.839 46.0503 34.8793 45.8793 34.8793C45.4266 34.8793 45.0141 34.6177 44.8229 34.2052C44.5513 33.6217 44.7928 32.9175 45.3763 32.6459C46.9356 31.9115 48.6861 31.499 50.4467 31.4688C53.7062 31.5191 56.7042 32.7867 58.9376 35.0201C61.4326 37.5252 62.7505 41.0362 62.7505 45.171V48.5714C62.7505 52.1127 60.175 56.3481 56.4728 58.8833L56.2616 59.0241L56.3622 59.2555C56.6439 59.8692 56.9256 60.2012 57.2676 60.2917L58.002 60.493C61.7746 61.5091 66.4728 62.7666 67.0865 68.34L67.1569 68.9437L67.5996 68.5211C72.6398 63.7525 75.4266 57.3038 75.4266 50.3823C75.4266 48.3501 75.1851 46.3481 74.7123 44.4165C74.5614 43.7928 74.9437 43.1489 75.5674 42.998C75.6579 42.9779 75.7585 42.9678 75.8491 42.9678C76.3924 42.9678 76.8551 43.33 76.9859 43.8632C77.3883 45.503 77.6398 47.2032 77.7304 48.9336L77.7505 49.2153H82.2777L82.3179 48.9638C83.0121 44.7384 86.6338 41.67 90.9195 41.67C95.7284 41.67 99.6418 45.5835 99.6418 50.3924C99.6418 55.2012 95.7284 59.1147 90.9195 59.1147C86.6338 59.1147 83.0121 56.0463 82.3179 51.8109L82.2777 51.5594H77.7505L77.7304 51.841C77.3984 58.0382 74.9235 64.004 70.7585 68.6419L70.5674 68.8531L74.994 73.33L75.2052 73.159C77.9115 70.9256 81.332 69.6982 84.833 69.6982C88.8672 69.6982 92.67 71.2777 95.5372 74.1449C98.4044 77.0121 99.9738 80.8149 99.9738 84.8491C99.9738 89.2354 98.0624 93.4004 94.7424 96.2877C94.6519 96.3883 94.5714 96.4587 94.4909 96.509C91.7646 98.7626 88.3441 99.9899 84.833 99.9899L84.8732 100ZM80.9195 88.7726C78.7465 90.0503 77.3078 92.3139 77.0664 94.8189L77.0463 94.9899L77.1771 95.0905C79.4105 96.7706 82.0664 97.666 84.8632 97.666C87.66 97.666 90.3159 96.7807 92.5493 95.0905L92.6801 94.9899L92.66 94.8189C92.4286 92.3139 90.9899 90.0604 88.8169 88.7726L88.666 88.6821L88.5151 88.7726C87.4185 89.4366 86.1509 89.7887 84.8732 89.7887C83.5956 89.7887 82.328 89.4366 81.2314 88.7726L81.0805 88.6821L80.9296 88.7726H80.9195ZM12.1871 88.7022C10.0141 89.9799 8.57545 92.2435 8.34406 94.7485L8.32394 94.9195L8.45473 95.0201C10.6881 96.7002 13.3441 97.5956 16.1408 97.5956C18.9376 97.5956 21.5936 96.7103 23.827 95.0201L23.9577 94.9195L23.9376 94.7485C23.7062 92.2435 22.2676 89.9899 20.0845 88.7022L19.9336 88.6117L19.7827 88.7022C18.6861 89.3662 17.4286 89.7183 16.1408 89.7183C14.8531 89.7183 13.5956 89.3662 12.4889 88.7022L12.338 88.6117L12.1871 88.7022V88.7022ZM50.507 84.4869C46.9859 84.4869 44.1288 87.3441 44.1288 90.8652C44.1288 94.3863 46.9859 97.2435 50.507 97.2435C54.0282 97.2435 56.8853 94.3763 56.8853 90.8652C56.8853 87.3541 54.0282 84.4869 50.507 84.4869ZM84.8732 72.0423C77.8109 72.0423 72.0765 77.7867 72.0765 84.8491C72.0765 87.6459 72.9618 90.3018 74.6519 92.5352L75.004 92.998L75.1851 92.4447C75.8591 90.342 77.2274 88.4809 79.0382 87.2032L79.2897 87.0322L79.1187 86.7807C78.2736 85.5835 77.831 84.175 77.831 82.7163C77.831 78.8129 81 75.6439 84.9034 75.6439C88.8068 75.6439 91.9759 78.8129 91.9759 82.7163C91.9759 84.175 91.5332 85.5835 90.6881 86.7807L90.5171 87.0322L90.7686 87.2032C92.5795 88.4809 93.9376 90.342 94.6117 92.4547L94.7928 93.008L95.1449 92.5453C96.8249 90.3119 97.7203 87.6559 97.7203 84.8591C97.7203 77.7968 91.9758 72.0523 84.9235 72.0523L84.8732 72.0423ZM16.1408 75.5835C20.0342 75.5835 23.2133 78.7525 23.2133 82.6559C23.2133 84.1147 22.7706 85.5231 21.9256 86.7203L21.7545 86.9718L22.006 87.1429C23.8169 88.4205 25.1851 90.2817 25.8592 92.3843L26.0402 92.9376L26.3924 92.4748C28.0724 90.2414 28.9678 87.5855 28.9678 84.7887C28.9678 77.7264 23.2233 71.9819 16.171 71.9819C9.11871 71.9819 3.37425 77.7264 3.37425 84.7887C3.37425 87.5855 4.25956 90.2414 5.93964 92.4748L6.29175 92.9376L6.47284 92.3843C7.14688 90.2817 8.51509 88.4105 10.326 87.1429L10.5775 86.9718L10.4064 86.7203C9.56137 85.5231 9.11871 84.1147 9.11871 82.6559C9.11871 78.7525 12.2877 75.5835 16.1911 75.5835H16.1408ZM84.8732 77.998C82.2676 77.998 80.1449 80.1207 80.1449 82.7264C80.1449 85.332 82.2676 87.4547 84.8732 87.4547C87.4789 87.4547 89.6016 85.332 89.6016 82.7264C89.6016 80.1207 87.4789 77.998 84.8732 77.998ZM16.1408 77.9276C13.5352 77.9276 11.4125 80.0503 11.4125 82.6559C11.4125 85.2616 13.5352 87.3843 16.1408 87.3843C18.7465 87.3843 20.8692 85.2616 20.8692 82.6559C20.8692 80.0503 18.7465 77.9276 16.1408 77.9276ZM41.8149 63.2696C38.2334 64.3662 36.161 65.7545 36.161 69.5875V70.8249L36.2918 70.9155C40.4869 73.833 45.3964 75.3722 50.507 75.3722C55.6177 75.3722 60.5272 73.833 64.7223 70.9155L64.8531 70.8249V69.5875C64.8531 65.7545 62.7807 64.3763 59.1992 63.2696L59.0684 63.2294L52.6298 67.002C51.835 67.5151 51.161 67.7565 50.507 67.7565C49.8531 67.7565 49.1791 67.5251 48.3944 67.0121L41.9457 63.2294L41.8149 63.2696V63.2696ZM46.6539 60.4125C46.3018 61.1268 45.8893 61.66 45.3863 62.0422L45.0241 62.3139L49.5915 64.9899C49.9738 65.2414 50.2253 65.4024 50.507 65.4024C50.7887 65.4024 51.0302 65.2414 51.3722 65.0201L55.9899 62.3139L55.6278 62.0422C55.1247 61.66 54.7123 61.1268 54.3602 60.4125L54.2394 60.161L53.6962 60.3722C52.5392 60.8048 51.5231 61.006 50.507 61.006C49.4909 61.006 48.4748 60.8048 47.3179 60.3722L46.835 60.1811L46.664 60.4125H46.6539ZM45.4869 43.2797C45.0342 43.2797 44.7928 43.5312 44.2696 44.0644C43.5855 44.7686 42.6398 45.7243 40.8089 46.1569L40.5775 46.2072V48.5714C40.5775 52.1227 44.1791 56.7002 48.1429 58.169C49.0382 58.501 49.7928 58.662 50.5171 58.662C51.2414 58.662 51.996 58.5111 52.8913 58.1791C56.8551 56.7103 60.4567 52.1429 60.4567 48.5815V46.2173L60.2253 46.167C58.3944 45.7344 57.4487 44.7787 56.7646 44.0744C56.2314 43.5312 55.9899 43.2897 55.5372 43.2897C55.3561 43.2897 55.165 43.33 54.994 43.3803C54.4306 43.5312 53.9477 43.6519 53.5251 43.7626C52.1268 44.1348 51.3521 44.3461 50.5171 44.3461C49.6821 44.3461 48.9175 44.1348 47.5191 43.7626C47.0765 43.6418 46.6036 43.5211 46.0503 43.3702C45.8692 43.3199 45.6781 43.2797 45.507 43.2797H45.4869ZM90.9497 44.0241C87.4286 44.0241 84.5714 46.8813 84.5714 50.4024C84.5714 53.9235 87.4286 56.7807 90.9497 56.7807C94.4708 56.7807 97.328 53.9135 97.328 50.4024C97.328 46.8913 94.4708 44.0241 90.9497 44.0241V44.0241ZM10.0543 44.0241C6.5332 44.0241 3.67606 46.8813 3.67606 50.4024C3.67606 53.9235 6.5332 56.7807 10.0543 56.7807C13.5755 56.7807 16.4326 53.9135 16.4326 50.4024C16.4326 46.8913 13.5755 44.0241 10.0543 44.0241V44.0241ZM80.0543 19.0744C77.8712 20.3622 76.4427 22.6157 76.2113 25.1207L76.1911 25.2917L76.3219 25.3924C78.5553 27.0724 81.2113 27.9678 84.008 27.9678C86.8048 27.9678 89.4608 27.0825 91.6942 25.3924L91.8249 25.2917L91.8048 25.1207C91.5734 22.6258 90.1348 20.3622 87.9618 19.0744L87.8109 18.9839L87.66 19.0744C86.5634 19.7384 85.2958 20.0905 84.0181 20.0905C82.7404 20.0905 81.4728 19.7384 80.3763 19.0744L80.2253 18.9839L80.0744 19.0744H80.0543ZM13.0523 19.0744C10.8692 20.3622 9.43058 22.6157 9.19919 25.1207L9.17907 25.2917L9.30986 25.3924C11.5433 27.0724 14.1992 27.9678 16.996 27.9678C19.7928 27.9678 22.4487 27.0825 24.6821 25.3924L24.8129 25.2917L24.7928 25.1207C24.5614 22.6157 23.1227 20.3622 20.9396 19.0744L20.7887 18.9839L20.6378 19.0744C19.5412 19.7384 18.2837 20.0905 16.996 20.0905C15.7082 20.0905 14.4507 19.7384 13.3541 19.0744L13.2032 18.9839L13.0523 19.0744V19.0744ZM17.006 5.94567C20.8994 5.94567 24.0785 9.11469 24.0785 13.0181C24.0785 14.4769 23.6358 15.8853 22.7907 17.0825L22.6197 17.334L22.8712 17.505C24.6821 18.7827 26.0503 20.6439 26.7243 22.7465L26.9054 23.2998L27.2575 22.837C28.9376 20.6036 29.833 17.9477 29.833 15.1509C29.833 8.08853 24.0885 2.34406 17.0362 2.34406C9.9839 2.34406 4.20926 8.08853 4.20926 15.1509C4.20926 17.9477 5.09457 20.6036 6.78471 22.837L7.13682 23.2998L7.31791 22.7465C7.99195 20.6439 9.36016 18.7827 11.171 17.505L11.4225 17.334L11.2515 17.0825C10.4064 15.8853 9.96378 14.4769 9.96378 13.0181C9.96378 9.11469 13.1328 5.94567 17.0362 5.94567H17.006ZM84.008 5.94567C87.9014 5.94567 91.0805 9.11469 91.0805 13.0181C91.0805 14.4869 90.6378 15.8853 89.7827 17.0825L89.6117 17.3239L89.8632 17.495C91.674 18.7726 93.0423 20.6338 93.7163 22.7364L93.8974 23.2897L94.2495 22.827C95.9296 20.5936 96.8249 17.9376 96.8249 15.1408C96.8249 8.07847 91.0805 2.334 84.0282 2.334C76.9758 2.334 71.2314 8.07847 71.2314 15.1408C71.2314 17.9376 72.1167 20.5936 73.8068 22.827L74.159 23.2897L74.34 22.7364C75.0141 20.6338 76.3823 18.7726 78.1932 17.495L78.4447 17.3239L78.2736 17.0724C77.4286 15.8752 76.9859 14.4668 76.9859 13.008C76.9859 9.10463 80.1549 5.93561 84.0583 5.93561L84.008 5.94567ZM84.008 8.28974C81.4024 8.28974 79.2797 10.4125 79.2797 13.0181C79.2797 15.6237 81.4024 17.7465 84.008 17.7465C86.6137 17.7465 88.7364 15.6237 88.7364 13.0181C88.7364 10.4125 86.6137 8.28974 84.008 8.28974V8.28974ZM17.006 8.28974C14.4004 8.28974 12.2777 10.4125 12.2777 13.0181C12.2777 15.6237 14.4004 17.7465 17.006 17.7465C19.6117 17.7465 21.7344 15.6237 21.7344 13.0181C21.7344 10.4125 19.6117 8.28974 17.006 8.28974V8.28974ZM50.507 3.55131C46.9859 3.55131 44.1288 6.40845 44.1288 9.92958C44.1288 13.4507 46.9859 16.3078 50.507 16.3078C54.0282 16.3078 56.8853 13.4406 56.8853 9.92958C56.8853 6.41851 54.0282 3.55131 50.507 3.55131V3.55131Z" fill="url(#paint0_linear_2323_1992)"/>
<defs>
<linearGradient id="paint0_linear_2323_1992" x1="3.44383" y1="-6.42929" x2="86.4951" y2="91.5273" gradientUnits="userSpaceOnUse">
<stop stop-color="#E6007A"/>
<stop offset="0.21" stop-color="#703AC2"/>
<stop offset="0.46" stop-color="#0070EB"/>
<stop offset="0.77" stop-color="#0297FB"/>
<stop offset="1" stop-color="#0AE2FF"/>
</linearGradient>
</defs>
</svg>

<svg xmlns="http://www.w3.org/2000/svg" width="100" height="100" fill="none"><path fill="url(#a)" d="M84.873 100a15.116 15.116 0 0 1-9.627-3.47 1.1 1.1 0 0 1-.252-.222c-3.35-2.918-5.262-7.083-5.262-11.469 0-3.511 1.238-6.932 3.471-9.638l.171-.211-4.426-4.477-.212.191a27.276 27.276 0 0 1-1.89 1.56c-.092.08-.172.14-.242.18a27.231 27.231 0 0 1-14.628 5.222l-.282.02v4.537l.252.04a8.685 8.685 0 0 1 7.293 8.602c0 4.809-3.913 8.723-8.722 8.723-4.809 0-8.722-3.914-8.722-8.723a8.685 8.685 0 0 1 7.294-8.601l.251-.04v-4.538l-.282-.02a27.22 27.22 0 0 1-14.607-5.201c-.302-.171-.574-.403-.825-.624l-.272-.231c-.362-.302-.724-.604-1.076-.916l-.212-.191-4.416 4.416.17.212a15.179 15.179 0 0 1 3.472 9.638c0 8.35-6.791 15.15-15.141 15.15S1 93.14 1 84.79c0-8.35 6.79-15.151 15.14-15.151 3.502 0 6.922 1.227 9.629 3.47l.21.172 4.417-4.417-.19-.211c-4.166-4.638-6.64-10.594-6.962-16.79l-.02-.282h-4.528l-.04.251a8.684 8.684 0 0 1-8.602 7.304c-4.809 0-8.722-3.914-8.722-8.722 0-4.81 3.913-8.723 8.722-8.723a8.685 8.685 0 0 1 8.602 7.294l.04.251h4.527l.02-.281a27.34 27.34 0 0 1 6.962-16.781l.191-.211-4.527-4.527-.211.14a15.027 15.027 0 0 1-8.662 2.737 15.12 15.12 0 0 1-9.658-3.491c-.09-.06-.15-.12-.211-.181-3.35-2.918-5.262-7.093-5.262-11.49C1.865 6.8 8.655 0 17.006 0c8.35 0 15.14 6.8 15.14 15.15 0 3.945-1.518 7.687-4.275 10.534l-.211.211 4.386 4.387.212-.192c4.627-4.164 10.583-6.64 16.78-6.961l.282-.02V18.58l-.252-.04a8.687 8.687 0 0 1-7.293-8.611c0-4.81 3.913-8.723 8.722-8.723 4.809 0 8.722 3.914 8.722 8.723a8.703 8.703 0 0 1-7.294 8.611l-.251.04v4.538l.282.02A27.348 27.348 0 0 1 64.26 26.82a27.491 27.491 0 0 1 4.466 3.27l.212.19 4.356-4.406-.201-.211c-2.737-2.847-4.246-6.57-4.246-10.503 0-8.35 6.79-15.15 15.14-15.15 4.035 0 7.838 1.579 10.705 4.446A15.038 15.038 0 0 1 99.13 15.16c0 4.396-1.912 8.571-5.252 11.459-.08.08-.14.14-.211.18a15.168 15.168 0 0 1-9.678 3.502c-3.129 0-6.137-.956-8.702-2.757l-.212-.15-4.486 4.537.19.21a27.78 27.78 0 0 1 3.26 4.438c.09.16.181.311.272.472l.06.111c.312.563.11 1.278-.453 1.6-.17.1-.372.15-.573.15-.422 0-.815-.23-1.026-.603l-.07-.12c-.081-.142-.151-.273-.232-.403-4.477-7.626-12.726-12.354-21.54-12.354-13.762 0-24.949 11.197-24.949 24.97 0 6.92 2.777 13.37 7.827 18.138l.443.423.07-.604c.604-5.573 5.302-6.84 9.085-7.847l.734-.201c.342-.09.624-.423.906-1.036l.1-.232-.211-.14c-3.692-2.536-6.278-6.771-6.278-10.313v-3.4c0-3.058.704-5.744 2.093-7.978.211-.342.583-.553.996-.553.221 0 .432.06.613.181.544.342.715 1.066.373 1.61-.865 1.388-1.409 3.008-1.63 4.829l-.06.543.492-.231c.634-.302 1.047-.725 1.48-1.167.653-.664 1.458-1.49 2.877-1.49.362 0 .744.05 1.157.162.563.14 1.036.271 1.448.382 1.288.342 1.912.513 2.435.513.523 0 1.157-.171 2.394-.503.423-.11.916-.241 1.49-.392.402-.101.794-.161 1.156-.161 1.419 0 2.223.825 2.877 1.489.433.442.845.865 1.48 1.167l.492.23-.07-.542c-.785-6.419-5.493-9.377-9.82-9.457a10.13 10.13 0 0 0-4.094.946 1.26 1.26 0 0 1-.503.11c-.452 0-.865-.261-1.056-.674a1.173 1.173 0 0 1 .553-1.56 12.484 12.484 0 0 1 5.07-1.176c3.26.05 6.258 1.318 8.492 3.551 2.495 2.505 3.813 6.016 3.813 10.151v3.4c0 3.542-2.576 7.777-6.278 10.312l-.211.141.1.231c.282.614.564.946.906 1.037l.734.201c3.773 1.016 8.47 2.274 9.084 7.847l.07.604.444-.423c5.04-4.769 7.827-11.217 7.827-18.139 0-2.032-.242-4.034-.715-5.965a1.178 1.178 0 0 1 .855-1.419c.09-.02.192-.03.282-.03.543 0 1.006.362 1.137.895.402 1.64.654 3.34.744 5.07l.02.282h4.528l.04-.251a8.685 8.685 0 0 1 8.602-7.294c4.808 0 8.722 3.913 8.722 8.722 0 4.81-3.914 8.723-8.722 8.723a8.685 8.685 0 0 1-8.602-7.304l-.04-.252H77.75l-.02.282a27.43 27.43 0 0 1-6.972 16.8l-.19.212 4.426 4.477.211-.171a15.163 15.163 0 0 1 9.628-3.46c4.034 0 7.837 1.579 10.704 4.446a15.038 15.038 0 0 1 4.437 10.704 15.16 15.16 0 0 1-5.232 11.439c-.09.1-.17.17-.251.221a15.17 15.17 0 0 1-9.658 3.48l.04.011ZM80.92 88.773a7.916 7.916 0 0 0-3.853 6.046l-.02.17.131.102a12.693 12.693 0 0 0 7.686 2.575c2.797 0 5.453-.885 7.686-2.575l.131-.101-.02-.171a7.896 7.896 0 0 0-3.843-6.046l-.151-.09-.15.09a7.053 7.053 0 0 1-3.643 1.016 7.053 7.053 0 0 1-3.642-1.016l-.15-.09-.151.09h-.01Zm-68.732-.07a7.88 7.88 0 0 0-3.843 6.046l-.02.17.13.101a12.693 12.693 0 0 0 7.687 2.576c2.797 0 5.453-.886 7.686-2.576l.13-.1-.02-.171a7.88 7.88 0 0 0-3.853-6.047l-.15-.09-.151.09a7.026 7.026 0 0 1-3.642 1.016 7.088 7.088 0 0 1-3.652-1.016l-.151-.09-.15.09Zm38.32-4.216a6.38 6.38 0 0 0-6.378 6.378 6.38 6.38 0 0 0 6.378 6.379 6.387 6.387 0 0 0 6.378-6.379 6.387 6.387 0 0 0-6.378-6.378Zm34.366-12.445c-7.062 0-12.797 5.745-12.797 12.807 0 2.797.886 5.453 2.576 7.686l.352.463.181-.553a10.307 10.307 0 0 1 3.853-5.242l.252-.17-.171-.252a7.015 7.015 0 0 1-1.288-4.065 7.076 7.076 0 0 1 7.072-7.072 7.076 7.076 0 0 1 7.073 7.072 7.015 7.015 0 0 1-1.288 4.065l-.17.251.25.171a10.272 10.272 0 0 1 3.844 5.252l.18.553.353-.463a12.693 12.693 0 0 0 2.575-7.686c0-7.062-5.744-12.807-12.796-12.807l-.05-.01Zm-68.732 3.541c3.893 0 7.072 3.17 7.072 7.073a7.016 7.016 0 0 1-1.287 4.064l-.171.252.251.17a10.306 10.306 0 0 1 3.853 5.242l.181.554.352-.463a12.693 12.693 0 0 0 2.576-7.686c0-7.063-5.745-12.807-12.797-12.807-7.052 0-12.797 5.744-12.797 12.807 0 2.796.886 5.452 2.566 7.686l.352.463.18-.554a10.265 10.265 0 0 1 3.854-5.241l.252-.171-.172-.252a7.016 7.016 0 0 1-1.287-4.064 7.076 7.076 0 0 1 7.072-7.073h-.05Zm68.732 2.415a4.736 4.736 0 0 0-4.728 4.728 4.736 4.736 0 0 0 4.728 4.729 4.736 4.736 0 0 0 4.729-4.729 4.736 4.736 0 0 0-4.729-4.728Zm-68.732-.07a4.736 4.736 0 0 0-4.728 4.728 4.736 4.736 0 0 0 4.728 4.728 4.736 4.736 0 0 0 4.728-4.728 4.736 4.736 0 0 0-4.728-4.728ZM41.815 63.27c-3.582 1.096-5.654 2.484-5.654 6.318v1.237l.13.09a24.767 24.767 0 0 0 14.216 4.457c5.11 0 10.02-1.539 14.215-4.457l.131-.09v-1.237c0-3.834-2.072-5.212-5.654-6.318l-.13-.04-6.44 3.772c-.794.513-1.468.755-2.122.755-.654 0-1.328-.232-2.113-.745l-6.448-3.783-.131.04Zm4.839-2.858c-.352.715-.765 1.248-1.268 1.63l-.362.272 4.568 2.676c.382.251.633.412.915.412.282 0 .523-.16.865-.382l4.618-2.706-.362-.272c-.503-.382-.916-.915-1.268-1.63l-.12-.251-.544.211c-1.157.433-2.173.634-3.189.634s-2.032-.201-3.19-.634l-.482-.19-.171.23h-.01ZM45.487 43.28c-.453 0-.694.251-1.217.784-.684.705-1.63 1.66-3.461 2.093l-.231.05v2.364c0 3.552 3.601 8.13 7.565 9.598.895.332 1.65.493 2.374.493.724 0 1.479-.15 2.374-.483 3.964-1.469 7.566-6.036 7.566-9.598v-2.364l-.232-.05c-1.83-.433-2.776-1.388-3.46-2.093-.534-.543-.775-.784-1.228-.784-.18 0-.372.04-.543.09-.563.151-1.046.272-1.469.383-1.398.372-2.173.583-3.008.583s-1.6-.211-2.998-.583c-.442-.121-.915-.242-1.469-.393a2.116 2.116 0 0 0-.543-.09h-.02Zm45.463.744a6.38 6.38 0 0 0-6.379 6.378 6.38 6.38 0 0 0 6.379 6.379c3.52 0 6.378-2.867 6.378-6.379 0-3.51-2.857-6.378-6.378-6.378Zm-80.896 0a6.38 6.38 0 0 0-6.378 6.378 6.38 6.38 0 0 0 6.378 6.379 6.387 6.387 0 0 0 6.379-6.379 6.387 6.387 0 0 0-6.379-6.378Zm70-24.95a7.87 7.87 0 0 0-3.843 6.047l-.02.17.13.101a12.693 12.693 0 0 0 7.687 2.576c2.797 0 5.453-.886 7.686-2.576l.13-.1-.02-.171a7.912 7.912 0 0 0-3.842-6.047l-.151-.09-.151.09a7.053 7.053 0 0 1-3.642 1.016 7.052 7.052 0 0 1-3.642-1.016l-.15-.09-.152.09h-.02Zm-67.002 0A7.88 7.88 0 0 0 9.2 25.121l-.02.17.13.101a12.693 12.693 0 0 0 7.687 2.576c2.797 0 5.453-.886 7.686-2.576l.13-.1-.02-.171a7.881 7.881 0 0 0-3.852-6.047l-.151-.09-.151.09a7.026 7.026 0 0 1-7.284 0l-.15-.09-.152.09Zm3.954-13.128c3.893 0 7.072 3.169 7.072 7.072a7.015 7.015 0 0 1-1.287 4.064l-.171.252.251.171a10.306 10.306 0 0 1 3.853 5.242l.181.553.352-.463a12.693 12.693 0 0 0 2.576-7.686c0-7.062-5.744-12.807-12.797-12.807C9.984 2.344 4.21 8.09 4.21 15.151c0 2.797.886 5.453 2.576 7.686l.352.463.18-.553a10.307 10.307 0 0 1 3.854-5.242l.252-.171-.171-.252a7.015 7.015 0 0 1-1.288-4.064 7.076 7.076 0 0 1 7.072-7.072h-.03Zm67.002 0c3.893 0 7.073 3.169 7.073 7.072a6.931 6.931 0 0 1-1.298 4.064l-.171.242.251.171a10.306 10.306 0 0 1 3.853 5.241l.181.554.352-.463a12.693 12.693 0 0 0 2.576-7.686c0-7.063-5.745-12.807-12.797-12.807-7.052 0-12.797 5.744-12.797 12.807 0 2.797.886 5.453 2.576 7.686l.352.463.181-.554a10.306 10.306 0 0 1 3.853-5.241l.252-.171-.171-.252a7.016 7.016 0 0 1-1.288-4.064 7.076 7.076 0 0 1 7.072-7.072l-.05.01Zm0 2.344a4.736 4.736 0 0 0-4.728 4.728 4.736 4.736 0 0 0 4.728 4.729 4.736 4.736 0 0 0 4.728-4.729 4.736 4.736 0 0 0-4.728-4.728Zm-67.002 0a4.736 4.736 0 0 0-4.728 4.728 4.736 4.736 0 0 0 4.728 4.729 4.736 4.736 0 0 0 4.728-4.729 4.736 4.736 0 0 0-4.728-4.728ZM50.507 3.55a6.38 6.38 0 0 0-6.378 6.379 6.38 6.38 0 0 0 6.378 6.378 6.387 6.387 0 0 0 6.378-6.378 6.387 6.387 0 0 0-6.378-6.379Z"/><defs><linearGradient id="a" x1="3.444" x2="86.495" y1="-6.429" y2="91.527" gradientUnits="userSpaceOnUse"><stop stop-color="#E6007A"/><stop offset=".21" stop-color="#703AC2"/><stop offset=".46" stop-color="#0070EB"/><stop offset=".77" stop-color="#0297FB"/><stop offset="1" stop-color="#0AE2FF"/></linearGradient></defs></svg>
